X:0217
T:The Peacock.
N:One sharp in the book.
N:Bar 4 is |dBB:| in the book
M:C
L:1/8
Q:1/4=120
I: :: ::
Z:Jack Campin * www.campin.me.uk * 2009
K:B Minor
fe|d2B2 B2AB|d2d2 e2de|f2f2 fgfe|d2B2  B2::
fg|a2a2 a2gf|b2a2 a2gf|g2f2 e2d2|a2A2 HA2
fe|d2B2 B2AB|d2d2 e2de|f2f2 fgfe|d2B2  B2:|

